X: 32599
T: Planxty O'Daly
R: jig
M: 6/8
K: Aminor
BA|:GEE GED|EAAA2B|cBc Ace|dBG G2e/^f/|
gGG BGG|dBA GBd|efe edB|1 dB^G ABA:|2 dB^GA2(3e/^f/^g/||
|:a>^ga Aca|a>^ga A2(3d/e/^f/|g>^fg GBd|gdB G2A/B/|
c>BcA2^c|d>^cd B=cd|e>fe edB|1 dB^G A2(3e/^f/^g/:|2 dB^G A||

